Newaita/actions/22/document-edit-encrypt.svg

<svg height="22" viewBox="0 0 22 22" width="22" xmlns="http://www.w3.org/2000/svg"><g fill="#424242"><path d="m7.277344 3.808594v1.820312h1.820312v-1.820312zm1.820312 1.820312v1.820313h1.816406v-1.820313zm0 1.820313h-1.820312v1.820312h1.820312zm0 1.820312v1.816407h1.816406v-1.816407zm-1.820312-1.820312v-1.820313h-1.820313v1.820313zm-1.820313 1.820312v1.816407h1.820313v-1.816407zm0 0"/><path d="m7.277344 11.085938v1.820312h1.820312v-1.820312zm1.820312 1.820312v1.820312h1.816406v-1.820312zm0 1.820312h-1.820312v1.816407h1.820312zm0 1.816407v1.820312h1.816406v-1.820312zm-1.820312-1.816407v-1.820312h-1.820313v1.820312zm-1.820313 1.816407v1.820312h1.820313v-1.820312zm0 0"/><path d="m5.457031 1.992188c-1.007812 0-1.820312.808593-1.820312 1.816406v14.554687c0 1.007813.8125 1.820313 1.820312 1.820313h10.914063c1.007812 0 1.820312-.8125 1.820312-1.820313v-8.1875h-.003906v-3.636719c0-.238281-.09375-.46875-.265625-.640624l-3.636719-3.636719c-.171875-.171875-.402344-.265625-.640625-.265625h-3.640625v-.003906zm4.546875 1.8125h3.265625l3.105469 3.109374v3.261719h-.003906v7.277344c0 .503906-.402344.910156-.90625.910156h-9.097656c-.503907 0-.910157-.40625-.910157-.910156v-12.734375c0-.503906.40625-.910156.910157-.910156h3.636718zm0 0"/></g></svg>

<?xml version="1.0" encoding="UTF-8"?>
<svg xmlns="http://www.w3.org/2000/svg" xmlns:xlink="http://www.w3.org/1999/xlink" width="22px" height="22px" viewBox="0 0 22 22" version="1.1">
<g id="surface1">
<path style=" stroke:none;fill-rule:nonzero;fill:rgb(25.882354%,25.882354%,25.882354%);fill-opacity:1;" d="M 7.277344 3.808594 L 7.277344 5.628906 L 9.097656 5.628906 L 9.097656 3.808594 Z M 9.097656 5.628906 L 9.097656 7.449219 L 10.914062 7.449219 L 10.914062 5.628906 Z M 9.097656 7.449219 L 7.277344 7.449219 L 7.277344 9.269531 L 9.097656 9.269531 Z M 9.097656 9.269531 L 9.097656 11.085938 L 10.914062 11.085938 L 10.914062 9.269531 Z M 7.277344 7.449219 L 7.277344 5.628906 L 5.457031 5.628906 L 5.457031 7.449219 Z M 5.457031 9.269531 L 5.457031 11.085938 L 7.277344 11.085938 L 7.277344 9.269531 Z M 5.457031 9.269531 "/>
<path style=" stroke:none;fill-rule:nonzero;fill:rgb(25.882354%,25.882354%,25.882354%);fill-opacity:1;" d="M 7.277344 11.085938 L 7.277344 12.90625 L 9.097656 12.90625 L 9.097656 11.085938 Z M 9.097656 12.90625 L 9.097656 14.726562 L 10.914062 14.726562 L 10.914062 12.90625 Z M 9.097656 14.726562 L 7.277344 14.726562 L 7.277344 16.542969 L 9.097656 16.542969 Z M 9.097656 16.542969 L 9.097656 18.363281 L 10.914062 18.363281 L 10.914062 16.542969 Z M 7.277344 14.726562 L 7.277344 12.90625 L 5.457031 12.90625 L 5.457031 14.726562 Z M 5.457031 16.542969 L 5.457031 18.363281 L 7.277344 18.363281 L 7.277344 16.542969 Z M 5.457031 16.542969 "/>
<path style=" stroke:none;fill-rule:nonzero;fill:rgb(25.882354%,25.882354%,25.882354%);fill-opacity:1;" d="M 5.457031 1.992188 C 4.449219 1.992188 3.636719 2.800781 3.636719 3.808594 L 3.636719 18.363281 C 3.636719 19.371094 4.449219 20.183594 5.457031 20.183594 L 16.371094 20.183594 C 17.378906 20.183594 18.191406 19.371094 18.191406 18.363281 L 18.191406 10.175781 L 18.1875 10.175781 L 18.1875 6.539062 C 18.1875 6.300781 18.09375 6.070312 17.921875 5.898438 L 14.285156 2.261719 C 14.113281 2.089844 13.882812 1.996094 13.644531 1.996094 L 10.003906 1.996094 L 10.003906 1.992188 Z M 10.003906 3.804688 L 13.269531 3.804688 L 16.375 6.914062 L 16.375 10.175781 L 16.371094 10.175781 L 16.371094 17.453125 C 16.371094 17.957031 15.96875 18.363281 15.464844 18.363281 L 6.367188 18.363281 C 5.863281 18.363281 5.457031 17.957031 5.457031 17.453125 L 5.457031 4.71875 C 5.457031 4.214844 5.863281 3.808594 6.367188 3.808594 L 10.003906 3.808594 Z M 10.003906 3.804688 "/>
</g>
</svg>
